app/img/phone.svg

<svg width="14" height="14" viewBox="0 0 14 14" fill="none" xmlns="http://www.w3.org/2000/svg">
<path d="M10.6 13.6667C7.87817 13.6631 5.26886 12.5803 3.34425 10.6557C1.41964 8.73112 0.336841 6.1218 0.333313 3.39999C0.333313 2.58666 0.656407 1.80665 1.23152 1.23153C1.80663 0.656423 2.58665 0.333328 3.39998 0.333328C3.57221 0.332016 3.74415 0.347647 3.91331 0.379995C4.07685 0.404195 4.23762 0.444388 4.39331 0.499995C4.50281 0.538414 4.60039 0.60475 4.67639 0.692443C4.75239 0.780136 4.80418 0.886147 4.82665 0.999995L5.73998 4.99999C5.7646 5.10857 5.76163 5.22158 5.73136 5.32872C5.70108 5.43585 5.64445 5.5337 5.56665 5.61333C5.47998 5.70666 5.47331 5.71333 4.65331 6.13999C5.30998 7.58057 6.46211 8.73743 7.89998 9.39999C8.33331 8.57333 8.33998 8.56666 8.43331 8.47999C8.51294 8.40219 8.61079 8.34556 8.71792 8.31528C8.82506 8.28501 8.93807 8.28204 9.04665 8.30666L13.0466 9.21999C13.1568 9.24556 13.2587 9.29876 13.3427 9.37457C13.4267 9.45037 13.49 9.5463 13.5266 9.65333C13.5829 9.81157 13.6253 9.9744 13.6533 10.14C13.6801 10.3075 13.6935 10.477 13.6933 10.6467C13.681 11.4565 13.3488 12.2286 12.7693 12.7944C12.1897 13.3602 11.4099 13.6738 10.6 13.6667ZM3.39998 1.66666C2.94081 1.66842 2.50095 1.8516 2.17627 2.17628C1.85158 2.50097 1.6684 2.94083 1.66665 3.39999C1.66841 5.76872 2.61017 8.03992 4.28511 9.71486C5.96005 11.3898 8.23125 12.3316 10.6 12.3333C11.0591 12.3316 11.499 12.1484 11.8237 11.8237C12.1484 11.499 12.3316 11.0592 12.3333 10.6V10.38L9.23998 9.66666L9.04665 10.0333C8.74665 10.6133 8.52665 11.0333 7.96665 10.8067C6.8619 10.4112 5.85911 9.77468 5.03114 8.94325C4.20316 8.11181 3.5708 7.10638 3.17998 5.99999C2.93998 5.47999 3.39331 5.23999 3.96665 4.93999L4.33331 4.75999L3.61998 1.66666H3.39998Z" fill="#969696"/>
</svg>

<svg width="14" height="14" fill="none" xmlns="http://www.w3.org/2000/svg"><path d="M10.6 13.667A10.28 10.28 0 01.333 3.4 3.067 3.067 0 013.4.333c.172-.001.344.015.513.047.164.024.325.064.48.12a.667.667 0 01.434.5l.913 4a.667.667 0 01-.173.613c-.087.094-.094.1-.914.527A6.607 6.607 0 007.9 9.4c.433-.827.44-.833.533-.92a.667.667 0 01.614-.173l4 .913a.667.667 0 01.48.433 2.888 2.888 0 01.166.994 3.067 3.067 0 01-3.093 3.02zm-7.2-12A1.74 1.74 0 001.667 3.4a8.94 8.94 0 008.933 8.933 1.74 1.74 0 001.733-1.733v-.22L9.24 9.667l-.193.366c-.3.58-.52 1-1.08.774A7.901 7.901 0 013.18 6c-.24-.52.213-.76.787-1.06l.366-.18-.713-3.093H3.4z" fill="#969696"/></svg>
